other/hwmirror.svg

<svg xmlns="http://www.w3.org/2000/svg" width="48" height="48"><path style="fill:none;stroke:#fff;stroke-width:1;stroke-linecap:round;stroke-linejoin:round;stroke-miterlimit:4;stroke-dasharray:none;stroke-opacity:1" d="m30.72735 23.284063-12.412526 4.586004M30.72735 15.07753l-12.412526 4.586005m4.616148-14.1606109A11.292573 18.447719 0 0 1 35.696837 21.119643a11.292573 18.447719 0 0 1-9.524977 20.896731 11.292573 18.447719 0 0 1-12.817484-15.503472 11.292573 18.447719 0 0 1 9.455517-20.9807538m-.276518-2.9136245A14.116207 21.36113 0 0 1 38.491262 20.701548a14.116207 21.36113 0 0 1-11.906637 24.196951 14.116207 21.36113 0 0 1-16.02241-17.951896A14.116207 21.36113 0 0 1 22.382022 2.6523716"/></svg>

<?xml version="1.0" encoding="UTF-8" standalone="no"?>
<svg
   xmlns:dc="http://purl.org/dc/elements/1.1/"
   xmlns:cc="http://creativecommons.org/ns#"
   xmlns:rdf="http://www.w3.org/1999/02/22-rdf-syntax-ns#"
   xmlns:svg="http://www.w3.org/2000/svg"
   xmlns="http://www.w3.org/2000/svg"
   xmlns:sodipodi="http://sodipodi.sourceforge.net/DTD/sodipodi-0.dtd"
   xmlns:inkscape="http://www.inkscape.org/namespaces/inkscape"
   width="48"
   height="48"
   viewBox="0 0 48 48"
   version="1.1"
   id="svg4"
   sodipodi:docname="hwmirror.svg"
   inkscape:version="0.92.5 (2060ec1f9f, 2020-04-08)">
  <metadata
     id="metadata10">
    <rdf:RDF>
      <cc:Work
         rdf:about="">
        <dc:format>image/svg+xml</dc:format>
        <dc:type
           rdf:resource="http://purl.org/dc/dcmitype/StillImage" />
        <dc:title></dc:title>
      </cc:Work>
    </rdf:RDF>
  </metadata>
  <defs
     id="defs8" />
  <sodipodi:namedview
     pagecolor="#ffffff"
     bordercolor="#666666"
     borderopacity="1"
     objecttolerance="10"
     gridtolerance="10"
     guidetolerance="10"
     inkscape:pageopacity="0"
     inkscape:pageshadow="2"
     inkscape:window-width="1366"
     inkscape:window-height="732"
     id="namedview6"
     showgrid="false"
     inkscape:zoom="4.9166667"
     inkscape:cx="-11.694915"
     inkscape:cy="24"
     inkscape:window-x="0"
     inkscape:window-y="0"
     inkscape:window-maximized="1"
     inkscape:current-layer="svg4" />
  <path
     style="fill:none;stroke:#ffffff;stroke-width:1;stroke-linecap:round;stroke-linejoin:round;stroke-miterlimit:4;stroke-dasharray:none;stroke-opacity:1"
     d="M 30.72735,23.284063 18.314824,27.870067 M 30.72735,15.07753 18.314824,19.663535 M 22.930972,5.5029241 A 11.292573,18.447719 0 0 1 35.696837,21.119643 11.292573,18.447719 0 0 1 26.17186,42.016374 11.292573,18.447719 0 0 1 13.354376,26.512902 11.292573,18.447719 0 0 1 22.809893,5.5321482 M 22.533375,2.6185237 A 14.116207,21.36113 0 0 1 38.491262,20.701548 14.116207,21.36113 0 0 1 26.584625,44.898499 14.116207,21.36113 0 0 1 10.562215,26.946603 14.116207,21.36113 0 0 1 22.382022,2.6523716"
     id="path2"
     inkscape:connector-curvature="0" />
</svg>
